X:2386
T:Thurot as Elliot 
C:P Cain, Baldwin 
C:Traditional
O:Isle of Man
N:See KV286
Z:Kiaull Vannin 386 
L:1/4
M:4/4 
Q:60 
K:G 
G|BB G B|(AE) FG|E DD D|D2 (Bc)|dd (ed)|(dB) AG|A A B G|A2 (Bc)| 
dd (de)|(dB) AG|A A Bd|d2e2|(dB) GB|(AG) EE|G ED D|D3|| 

